;FLAVOR:Marlin
;TIME:1339
;Filament used: 1.1945m
;Layer height: 0.2
;MINX:143.2
;MINY:159.7
;MINZ:0.2
;MAXX:206.8
;MAXY:178.5
;MAXZ:11.74
;Generated with Cura_SteamEngine 5.3.1
M140 S60
M105
M190 S60
M104 S200
M105
M109 S200
M82 ;absolute extrusion mode
M201 X500.00 Y500.00 Z100.00 E5000.00 ;Setup machine max acceleration
M203 X500.00 Y500.00 Z10.00 E50.00 ;Setup machine max feedrate
M204 P500.00 R1000.00 T500.00 ;Setup Print/Retract/Travel acceleration
M205 X8.00 Y8.00 Z0.40 E5.00 ;Setup Jerk
M220 S100 ;Reset Feedrate
M221 S100 ;Reset Flowrate

G28 ;Home
M420 S1 Z2 ;Enable ABL using saved Mesh and Fade Height

G92 E0 ;Reset Extruder
G1 Z2.0 F3000 ;Move Z Axis up
G1 X10.1 Y20 Z0.28 F5000.0 ;Move to start position
G1 X10.1 Y200.0 Z0.28 F1500.0 E15 ;Draw the first line
G1 X10.4 Y200.0 Z0.28 F5000.0 ;Move to side a little
G1 X10.4 Y20 Z0.28 F1500.0 E30 ;Draw the second line
G92 E0 ;Reset Extruder
G1 Z2.0 F3000 ;Move Z Axis up

G92 E0
G92 E0
G1 F2700 E-6.5
;LAYER_COUNT:48
;LAYER:0
M107
M204 S2500
M205 X22 Y22
G0 F3600 X144.7 Y160.476 Z0.2
M204 S500
;TYPE:SKIRT
G1 F2700 E0
G1 F1200 X145.636 Y159.919 E0.03623
G1 X146.734 Y159.7 E0.07347
G1 X203.39 Y159.7 E1.95785
G1 X204.322 Y159.929 E1.98977
G1 X205.322 Y160.447 E2.02723
G1 X206.024 Y161.2 E2.06147
G1 X206.581 Y162.136 E2.0977
G1 X206.8 Y163.234 E2.13494
G1 X206.8 Y175.09 E2.52927
G1 X206.571 Y176.022 E2.56119
G1 X206.053 Y177.022 E2.59865
G1 X205.3 Y177.724 E2.63289
G1 X204.364 Y178.281 E2.66911
G1 X203.266 Y178.5 E2.70635
G1 X146.61 Y178.5 E4.59074
G1 X145.678 Y178.271 E4.62266
G1 X144.678 Y177.753 E4.66012
G1 X143.976 Y177 E4.69436
G1 X143.419 Y176.064 E4.73058
G1 X143.2 Y174.966 E4.76782
G1 X143.2 Y163.11 E5.16215
G1 X143.429 Y162.178 E5.19408
G1 X143.947 Y161.178 E5.23153
G1 X144.7 Y160.476 E5.26577
M204 S2500
G0 F3600 X144.942 Y160.798
M204 S500
G1 F1200 X145.784 Y160.297 E5.29836
G1 X146.772 Y160.1 E5.33187
G1 X203.344 Y160.1 E7.21346
G1 X204.179 Y160.305 E7.24206
G1 X205.075 Y160.769 E7.27562
G1 X205.702 Y161.442 E7.30621
G1 X206.203 Y162.284 E7.3388
G1 X206.4 Y163.272 E7.37231
G1 X206.4 Y175.044 E7.76384
G1 X206.195 Y175.879 E7.79244
G1 X205.731 Y176.775 E7.826
G1 X205.058 Y177.402 E7.85659
G1 X204.216 Y177.903 E7.88918
G1 X203.228 Y178.1 E7.92269
G1 X146.656 Y178.1 E9.80428
G1 X145.821 Y177.895 E9.83288
G1 X144.925 Y177.431 E9.86644
G1 X144.298 Y176.758 E9.89703
G1 X143.797 Y175.916 E9.92962
G1 X143.6 Y174.928 E9.96313
G1 X143.6 Y163.156 E10.35467
G1 X143.805 Y162.321 E10.38326
G1 X144.269 Y161.425 E10.41682
G1 X144.942 Y160.798 E10.44742
M204 S2500
G0 F3600 X145.184 Y161.12
M204 S500
G1 F1200 X145.932 Y160.675 E10.47636
G1 X146.81 Y160.5 E10.50614
G1 X203.298 Y160.5 E12.38494
G1 X204.036 Y160.681 E12.41021
G1 X204.828 Y161.091 E12.43988
G1 X205.38 Y161.684 E12.46682
G1 X205.825 Y162.432 E12.49577
G1 X206 Y163.31 E12.52555
G1 X206 Y174.998 E12.91429
G1 X205.819 Y175.736 E12.93956
G1 X205.409 Y176.528 E12.96923
G1 X204.816 Y177.08 E12.99617
G1 X204.068 Y177.525 E13.02512
G1 X203.19 Y177.7 E13.0549
G1 X146.702 Y177.7 E14.9337
G1 X145.964 Y177.519 E14.95897
G1 X145.172 Y177.109 E14.98863
G1 X144.62 Y176.516 E15.01558
G1 X144.175 Y175.768 E15.04453
G1 X144 Y174.89 E15.0743
G1 X144 Y163.202 E15.46305
G1 X144.181 Y162.464 E15.48832
G1 X144.591 Y161.672 E15.51798
G1 X145.184 Y161.12 E15.54493
M204 S2500
G0 F3600 X145.423 Y161.444
M204 S500
G1 F1200 X146.08 Y161.053 E15.57036
G1 X146.848 Y160.9 E15.5964
G1 X203.248 Y160.9 E17.47228
G1 X203.897 Y161.059 E17.4945
G1 X204.583 Y161.414 E17.52019
G1 X205.056 Y161.923 E17.5433
G1 X205.447 Y162.58 E17.56873
G1 X205.6 Y163.348 E17.59478
G1 X205.6 Y174.948 E17.98059
G1 X205.441 Y175.597 E18.00282
G1 X205.086 Y176.283 E18.02851
G1 X204.577 Y176.756 E18.05162
G1 X203.92 Y177.147 E18.07705
G1 X203.152 Y177.3 E18.10309
G1 X146.752 Y177.3 E19.97897
G1 X146.103 Y177.141 E20.00119
G1 X145.417 Y176.786 E20.02688
G1 X144.944 Y176.277 E20.04999
G1 X144.553 Y175.62 E20.07542
G1 X144.4 Y174.852 E20.10147
G1 X144.4 Y163.252 E20.48728
G1 X144.559 Y162.603 E20.50951
G1 X144.914 Y161.917 E20.5352
G1 X145.423 Y161.444 E20.55831
M204 S2500
G0 F3600 X145.662 Y161.768
M204 S500
G1 F1200 X146.228 Y161.431 E20.58022
G1 X146.886 Y161.3 E20.60253
G1 X203.198 Y161.3 E22.47548
G1 X203.758 Y161.437 E22.49465
G1 X204.338 Y161.737 E22.51637
G1 X204.732 Y162.162 E22.53565
G1 X205.069 Y162.728 E22.55756
G1 X205.2 Y163.386 E22.57987
G1 X205.2 Y174.898 E22.96276
G1 X205.063 Y175.458 E22.98194
G1 X204.763 Y176.038 E23.00365
G1 X204.338 Y176.432 E23.02293
G1 X203.772 Y176.769 E23.04484
G1 X203.114 Y176.9 E23.06715
G1 X146.802 Y176.9 E24.9401
G1 X146.242 Y176.763 E24.95927
G1 X145.662 Y176.463 E24.98099
G1 X145.268 Y176.038 E25.00027
G1 X144.931 Y175.472 E25.02218
G1 X144.8 Y174.814 E25.04449
G1 X144.8 Y163.302 E25.42738
G1 X144.937 Y162.742 E25.44656
G1 X145.237 Y162.162 E25.46828
G1 X145.662 Y161.768 E25.48755
M204 S2500
G0 F3600 X145.901 Y162.092
M204 S500
G1 F1200 X146.376 Y161.809 E25.50594
G1 X146.924 Y161.7 E25.52453
G1 X203.148 Y161.7 E27.39454
G1 X203.619 Y161.815 E27.41067
G1 X204.092 Y162.06 E27.42839
G1 X204.408 Y162.401 E27.44385
G1 X204.691 Y162.876 E27.46224
G1 X204.8 Y163.424 E27.48082
G1 X204.8 Y174.848 E27.86079
G1 X204.685 Y175.319 E27.87691
G1 X204.44 Y175.792 E27.89463
G1 X204.099 Y176.108 E27.91009
G1 X203.624 Y176.391 E27.92848
G1 X203.076 Y176.5 E27.94707
G1 X146.852 Y176.5 E29.81708
G1 X146.381 Y176.385 E29.83321
G1 X145.908 Y176.14 E29.85093
G1 X145.592 Y175.799 E29.86639
G1 X145.309 Y175.324 E29.88478
G1 X145.2 Y174.776 E29.90336
G1 X145.2 Y163.352 E30.28333
G1 X145.315 Y162.881 E30.29945
G1 X145.56 Y162.408 E30.31717
G1 X145.901 Y162.092 E30.33263
M204 S2500
G0 F3600 X146.14 Y162.416
M204 S500
G1 F1200 X145.883 Y162.654 E30.34428
G1 X145.693 Y163.02 E30.358
G1 X145.6 Y163.402 E30.37107
G1 X145.6 Y174.738 E30.74811
G1 X145.687 Y175.176 E30.76296
G1 X145.916 Y175.56 E30.77783
G1 X146.154 Y175.817 E30.78949
G1 X146.52 Y176.007 E30.8032
G1 X146.902 Y176.1 E30.81628
G1 X203.038 Y176.1 E32.68337
G1 X203.476 Y176.013 E32.69822
G1 X203.86 Y175.784 E32.71309
G1 X204.117 Y175.546 E32.72474
G1 X204.307 Y175.18 E32.73846
G1 X204.4 Y174.798 E32.75153
G1 X204.4 Y163.462 E33.12857
G1 X204.313 Y163.024 E33.14342
G1 X204.084 Y162.64 E33.15829
G1 X203.846 Y162.383 E33.16994
G1 X203.48 Y162.193 E33.18366
G1 X203.098 Y162.1 E33.19674
G1 X146.962 Y162.1 E35.06383
G1 X146.524 Y162.187 E35.07868
G1 X146.14 Y162.416 E35.09355
M204 S2500
G0 F3600 X146.345 Y162.76
M204 S500
G1 F1200 X146.672 Y162.565 E35.10621
G1 X147 Y162.5 E35.11733
G1 X203.049 Y162.5 E36.98153
G1 X203.338 Y162.57 E36.99142
G1 X203.601 Y162.707 E37.00129
G1 X203.74 Y162.845 E37.0078
G1 X203.935 Y163.172 E37.02046
G1 X204 Y163.5 E37.03158
G1 X204 Y174.749 E37.40573
G1 X203.93 Y175.038 E37.41562
G1 X203.793 Y175.301 E37.42548
G1 X203.655 Y175.44 E37.432
G1 X203.328 Y175.635 E37.44466
G1 X203 Y175.7 E37.45578
G1 X146.951 Y175.7 E39.31998
G1 X146.662 Y175.63 E39.32987
G1 X146.399 Y175.493 E39.33973
G1 X146.26 Y175.355 E39.34625
G1 X146.065 Y175.028 E39.35891
G1 X146 Y174.7 E39.37003
G1 X146 Y163.451 E39.74417
G1 X146.07 Y163.162 E39.75406
G1 X146.207 Y162.899 E39.76393
G1 X146.345 Y162.76 E39.77044
M204 S2500
G0 F3600 X146.55 Y163.104
M204 S500
G1 F1200 X146.82 Y162.943 E39.7809
G1 X147 Y162.9 E39.78705
G1 X203 Y162.9 E41.64962
G1 X203.244 Y162.959 E41.65797
G1 X203.396 Y163.05 E41.66386
G1 X203.557 Y163.32 E41.67432
G1 X203.6 Y163.5 E41.68047
G1 X203.6 Y174.7 E42.05299
G1 X203.541 Y174.944 E42.06133
G1 X203.45 Y175.096 E42.06723
G1 X203.18 Y175.257 E42.07768
G1 X203 Y175.3 E42.08384
G1 X147 Y175.3 E43.94641
G1 X146.756 Y175.241 E43.95475
G1 X146.604 Y175.15 E43.96065
G1 X146.443 Y174.88 E43.9711
G1 X146.4 Y174.7 E43.97726
G1 X146.4 Y163.5 E44.34977
G1 X146.459 Y163.256 E44.35812
G1 X146.55 Y163.104 E44.36401
M204 S2500
G0 F3600 X146.839 Y163.381
M204 S500
G1 F1200 X147 Y163.3 E44.37001
G1 X203 Y163.3 E46.23258
G1 X203.119 Y163.339 E46.23674
G1 X203.2 Y163.5 E46.24273
G1 X203.2 Y174.7 E46.61525
G1 X203.161 Y174.819 E46.61941
G1 X203 Y174.9 E46.62541
G1 X147 Y174.9 E48.48798
G1 X146.881 Y174.861 E48.49214
G1 X146.8 Y174.7 E48.49813
G1 X146.8 Y163.5 E48.87065
G1 X146.839 Y163.381 E48.87481
M204 S2500
G1 F2700 E42.37481
;MESH:threaded insert test.STL
G0 F3600 X146.335 Y163.381
G0 X146.335 Y168.189
G0 X151.099 Y168.684
M204 S500
M205 X8 Y8
;TYPE:WALL-INNER
G1 F2700 E48.87481
G1 F1326 X151.092 Y169.331 E48.89429
M204 S2500
M205 X22 Y22
G0 F3600 X151.109 Y170.121
M204 S500
M205 X8 Y8
;TYPE:WALL-OUTER
G1 F1200 X151.288 Y170.045 E48.90076
G1 X151.382 Y169.892 E48.90673
G1 X151.453 Y169.652 E48.91505
G1 X151.484 Y169.263 E48.92803
G1 X151.488 Y169.003 E48.93668
G1 X151.472 Y168.627 E48.9492
G1 X151.406 Y168.213 E48.96314
G1 X151.213 Y167.997 E48.97278
G1 X150.99 Y167.988 E48.9802
G1 X150.86 Y168.123 E48.98643
G1 X150.754 Y168.423 E48.99702
G1 X150.704 Y168.813 E49.01009
G1 X150.706 Y169.358 E49.02822
G1 X150.773 Y169.834 E49.04421
G1 X150.939 Y170.064 E49.05364
G1 X151.109 Y170.121 E49.05961
M204 S2500
M205 X22 Y22
G1 F2700 E42.55961
G0 F3600 X151.088 Y169.818
G0 X151.265 Y169.264
G0 X146.335 Y169.264
G0 X146.347 Y162.847
G0 X195.361 Y162.835
G0 X195.361 Y168.858
M204 S500
M205 X8 Y8
G1 F2700 E49.05961
G1 F833.3 X195.324 Y168.92 E49.06306
G1 X195.253 Y168.92 E49.06647
G1 X195.217 Y168.858 E49.0699
G1 X195.254 Y168.796 E49.07336
G1 X195.324 Y168.796 E49.07671
M204 S2500
M205 X22 Y22
G1 F2700 E42.57671
G0 F3600 X196.47 Y169.543
G0 X198.049 Y167.833
M204 S500
M205 X8 Y8
G1 F2700 E49.07671
G1 F771.7 X198.114 Y167.607 E49.08887
M204 S2500
M205 X22 Y22
G1 F2700 E42.58887
G0 F3600 X198.189 Y167.282
G0 X198.815 Y166.783
G0 X199.324 Y166.668
G0 X200.057 Y166.721
G0 X200.361 Y166.837
G0 X200.755 Y167.131
G0 X200.957 Y167.386
G0 X201.208 Y168.067
G0 X201.264 Y168.758
G0 X200.952 Y170.472
G0 X200.736 Y170.84
G0 X200.194 Y171.284
G0 X199.698 Y171.424
G0 X193.907 Y171.419
G0 X193.435 Y171.113
G0 X194.175 Y171.113
M204 S500
M205 X8 Y8
G1 F2700 E49.08887
G1 F1200 X194.136 Y171.016 E49.09235
G1 X194.135 Y168.769 E49.16708
G1 X194.002 Y168.769 E49.17151
G1 X193.805 Y168.655 E49.17908
G1 X193.803 Y167.931 E49.20316
G1 X193.866 Y167.804 E49.20787
G1 X194.002 Y167.752 E49.21272
G1 X194.135 Y167.752 E49.21714
G1 X194.138 Y167.154 E49.23703
G1 X194.178 Y167.067 E49.24022
G1 X194.3 Y166.994 E49.24494
G1 X195 Y166.992 E49.26823
G1 X195.111 Y167.025 E49.27208
G1 X195.2 Y167.142 E49.27697
G1 X195.2 Y167.752 E49.29726
G1 X196.487 Y167.751 E49.34006
G1 F1090.9 X196.621 Y167.718 E49.34511
G1 F932 X196.758 Y167.754 E49.35118
G1 X196.76 Y167.611 E49.3573
G1 F1090.9 X196.833 Y167.352 E49.36715
G1 F1200 X196.99 Y167.102 E49.37696
G1 X197.216 Y166.972 E49.38564
G1 X197.548 Y166.952 E49.3967
G1 X197.873 Y167.171 E49.40973
G1 F1000 X198.078 Y167.496 E49.42507
G1 F892.2 X198.109 Y167.593 E49.42962
G1 F1048 X198.449 Y167.358 E49.44536
G1 F1200 X198.532 Y167.271 E49.44936
G1 X198.907 Y167.011 E49.46454
G1 X199.343 Y166.907 E49.47945
G1 X199.674 Y166.902 E49.49046
G1 X199.975 Y166.95 E49.5006
G1 X200.236 Y167.046 E49.50985
G1 X200.589 Y167.304 E49.52439
G1 X200.766 Y167.536 E49.5341
G1 X200.89 Y167.795 E49.54365
G1 X201.024 Y168.318 E49.5616
G1 X200.956 Y168.48 E49.56745
G1 X200.821 Y168.532 E49.57226
G1 F1066.7 X199.92 Y168.532 E49.60597
G1 F928.4 X199.771 Y168.139 E49.62404
G1 F898.9 X199.66 Y168.059 E49.63011
G1 X199.534 Y168.037 E49.63579
G1 X199.335 Y168.092 E49.64496
G1 X199.235 Y168.199 E49.65146
G1 X199.242 Y168.392 E49.66004
G1 X199.358 Y168.519 E49.66768
G1 X199.554 Y168.601 E49.67711
G1 X199.874 Y168.636 E49.6914
G1 F1027.8 X200.005 Y168.781 E49.69899
G1 F1200 X200.044 Y168.902 E49.70322
G1 X200.044 Y169.518 E49.72371
G1 F1073.8 X199.938 Y169.747 E49.73309
G1 X200.32 Y169.794 E49.74739
G1 F1200 X200.644 Y169.794 E49.75817
G1 X200.772 Y169.886 E49.76341
G1 X200.804 Y169.994 E49.76716
G1 X200.725 Y170.389 E49.78056
G1 X200.528 Y170.711 E49.79311
G1 X200.334 Y170.905 E49.80224
G1 X200.107 Y171.056 E49.81131
G1 X199.672 Y171.183 E49.82638
G1 X199.265 Y171.184 E49.83991
G1 X198.927 Y171.062 E49.85187
G1 X198.705 Y170.921 E49.86061
G1 X198.431 Y170.618 E49.8742
G1 X198.273 Y170.186 E49.8895
G1 X198.289 Y169.78 E49.90301
G1 X198.474 Y169.396 E49.91719
G1 X198.589 Y169.281 E49.9226
G1 X198.299 Y169.021 E49.93555
G1 X198.113 Y168.598 E49.95092
G1 X198.076 Y168.312 E49.96051
G1 X198.08 Y168.234 E49.96311
G1 F1061.9 X198.03 Y167.849 E49.9777
G1 F975.6 X197.854 Y167.994 E49.98703
G1 F1093.4 X197.563 Y168.13 E49.99876
G1 F1134.8 X197.222 Y168.135 E50.01075
G1 F1019.1 X196.899 Y167.957 E50.0252
G1 F932 X196.825 Y167.863 E50.03032
G1 F1025.6 X196.767 Y168.329 E50.04859
G1 F1200 X196.762 Y168.693 E50.0607
G1 X195.196 Y171.102 E50.15627
G1 X195.064 Y171.189 E50.16153
G1 X194.335 Y171.191 E50.18577
G1 X194.175 Y171.113 E50.19169
M204 S2500
M205 X22 Y22
G0 F3600 X193.857 Y171.356
M204 S500
M205 X8 Y8
;TYPE:WALL-INNER
G1 F1200 X193.739 Y171.065 E50.20214
G1 X193.735 Y169.014 E50.27035
G1 X193.479 Y168.865 E50.2802
G1 X193.402 Y168.654 E50.28768
G1 X193.405 Y167.801 E50.31605
G1 X193.595 Y167.51 E50.32761
G1 X193.735 Y167.456 E50.3326
G1 X193.735 Y167.115 E50.34394
G1 X193.865 Y166.818 E50.35472
G1 X194.061 Y166.657 E50.36316
G1 X194.255 Y166.592 E50.36996
G1 X195 Y166.592 E50.39474
G1 X195.331 Y166.691 E50.40623
G1 X195.433 Y166.775 E50.41063
G1 X195.568 Y166.995 E50.41921
G1 X195.6 Y167.352 E50.43113
G1 X196.429 Y167.351 E50.45871
G1 X196.489 Y167.148 E50.46575
G1 X196.718 Y166.809 E50.47935
G1 X196.928 Y166.663 E50.48786
G1 X197.147 Y166.578 E50.49567
G1 X197.495 Y166.555 E50.50727
G1 X197.759 Y166.611 E50.51625
G1 X198.07 Y166.821 E50.52873
G1 X198.231 Y166.992 E50.53654
G1 X198.75 Y166.632 E50.55755
G1 X199.274 Y166.513 E50.57542
G1 X199.684 Y166.499 E50.58907
G1 X200.096 Y166.564 E50.60294
G1 X200.446 Y166.701 E50.61544
G1 X200.879 Y167.022 E50.63337
G1 X201.126 Y167.364 E50.6474
G1 X201.276 Y167.678 E50.65897
G1 X201.428 Y168.29 E50.67995
G1 X201.393 Y168.519 E50.68765
G1 X201.226 Y168.775 E50.69782
G1 X201.084 Y168.872 E50.70354
G1 X200.821 Y168.932 E50.71251
G1 X200.445 Y168.933 E50.72502
G1 X200.444 Y169.394 E50.74035
G1 X200.758 Y169.413 E50.75081
G1 X200.997 Y169.539 E50.7598
G1 X201.109 Y169.67 E50.76553
G1 F1203 X201.212 Y170.02 E50.77764
G1 X201.102 Y170.535 E50.79511
G1 X200.862 Y170.944 E50.81084
G1 F1200 X200.557 Y171.237 E50.82491
G1 X200.257 Y171.435 E50.83686
G1 X199.711 Y171.585 E50.85569
G1 F1203 X199.202 Y171.584 E50.87258
G1 X198.841 Y171.462 E50.88522
G1 X198.452 Y171.238 E50.90012
G1 F1200 X198.16 Y170.914 E50.91462
G1 X198.042 Y170.719 E50.9222
G1 X197.911 Y170.361 E50.93488
G1 X197.875 Y170.131 E50.94263
G1 X197.892 Y169.681 E50.9576
G1 X198.057 Y169.34 E50.9702
G1 X197.938 Y169.189 E50.9766
G1 X197.721 Y168.699 E50.99442
G1 X197.692 Y168.502 E51.00105
G1 X197.612 Y168.533 E51.0039
G1 X197.165 Y168.534 E51.01877
G1 X197.139 Y168.848 E51.02925
G1 X195.529 Y171.324 E51.12748
G1 X195.329 Y171.512 E51.13661
G1 X195.111 Y171.591 E51.14432
G1 X194.335 Y171.591 E51.17013
G1 X194.055 Y171.522 E51.17972
G1 X193.857 Y171.356 E51.18831
M204 S2500
M205 X22 Y22
G0 F3600 X193.435 Y171.356
G0 X193.507 Y171.819
G0 X196.665 Y172.075
G0 X196.992 Y171.601
G0 X202.13 Y173.83
G0 X202.4 Y174.1
M204 S500
M205 X8 Y8
G1 F1200 X202.4 Y164.1 E51.52092
G1 X147.6 Y164.1 E53.34357
G1 X147.6 Y174.1 E53.67617
G1 X202.4 Y174.1 E55.49883
M204 S2500
M205 X22 Y22
G0 F3600 X202.13 Y173.83
G0 X199.96 Y172.829
M204 S500
M205 X8 Y8
G1 F907.4 X199.631 Y172.842 E55.51331
G1 F932 X199.296 Y172.842 E55.52766
G1 F846.6 X198.686 Y172.791 E55.55652
M204 S2500
M205 X22 Y22
G0 F3600 X201.6 Y171.266
M204 S500
M205 X8 Y8
G1 F1200 X201.323 Y171.634 E55.57183
G1 X201.003 Y171.901 E55.5857
G1 X200.673 Y172.115 E55.59878
G1 X200.394 Y172.227 E55.60878
G1 X199.915 Y172.362 E55.62533
G1 X199.632 Y172.385 E55.63477
G1 X199.297 Y172.384 E55.64592
G1 X198.85 Y172.31 E55.66099
G1 F1203 X198.583 Y172.218 E55.67035
G1 X198.17 Y172.022 E55.68552
G1 X197.795 Y171.704 E55.70183
G1 F1200 X197.566 Y171.45 E55.71321
G1 X197.291 Y170.994 E55.73092
