;FLAVOR:Marlin
;TIME:651
;Filament used: 1.16485m
;Layer height: 0.2
;MINX:94
;MINY:90.5
;MINZ:0.2
;MAXX:156
;MAXY:107.7
;MAXZ:11.51
;Generated with Cura_SteamEngine 5.3.1
M82 ;absolute extrusion mode
G21 ; set units to millimeters
G90 ; use absolute positioning
M82 ; absolute extrusion mode
M104 S200 ; set extruder temp
M140 S60 ; set bed temp
M190 S60 ; wait for bed temp
M109 S200 ; wait for extruder temp
G28 W ; home all without mesh bed level
G80 ; mesh bed leveling
G92 E0.0 ; reset extruder distance position
G1 Y-3.0 F1000.0 ; go outside print area
G1 X60.0 E9.0 F1000.0 ; intro line
G1 X100.0 E21.5 F1000.0 ; intro line
G92 E0.0 ; reset extruder distance position
G92 E0
G92 E0
G1 F2100 E-0.8
;LAYER_COUNT:43
;LAYER:0
M107
M204 S571
M205 X8 Y8
G0 F3600 X94.748 Y91.513 Z0.2
M204 S500
;TYPE:SKIRT
G1 F2100 E0
G1 F1200 X95.367 Y91.014 E0.02644
G1 X96.164 Y90.618 E0.05604
G1 X97 Y90.5 E0.08413
G1 X153.204 Y90.518 E1.95348
G1 X153.948 Y90.646 E1.97859
G1 X154.77 Y91.081 E2.00952
G1 X154.987 Y91.248 E2.01863
G1 X155.486 Y91.867 E2.04507
G1 X155.882 Y92.663 E2.07464
G1 X155.996 Y93.442 E2.10083
G1 X156 Y104.799 E2.47856
G1 X155.854 Y105.648 E2.50722
G1 X155.419 Y106.47 E2.53815
G1 X155.252 Y106.687 E2.54725
G1 X154.633 Y107.186 E2.5737
G1 X153.837 Y107.582 E2.60327
G1 X153.058 Y107.696 E2.62946
G1 X96.778 Y107.7 E4.50134
G1 X95.965 Y107.507 E4.52913
G1 X95.184 Y107.094 E4.55851
G1 X94.982 Y106.913 E4.56753
G1 X94.514 Y106.333 E4.59232
G1 X94.118 Y105.537 E4.62189
G1 X94.004 Y104.758 E4.64808
G1 X94 Y93.401 E5.02581
G1 X94.146 Y92.552 E5.05446
G1 X94.581 Y91.73 E5.0854
G1 X94.748 Y91.513 E5.0945
M204 S571
G0 F3600 X95.038 Y91.793
M204 S500
G1 F1200 X95.583 Y91.353 E5.1178
G1 X96.283 Y91.005 E5.1438
G1 X97 Y90.9 E5.1679
G1 X153.136 Y90.912 E7.03499
G1 X153.816 Y91.029 E7.05794
G1 X154.583 Y91.435 E7.08681
G1 X154.707 Y91.538 E7.09217
G1 X155.147 Y92.083 E7.11547
G1 X155.495 Y92.783 E7.14147
G1 X155.6 Y93.5 E7.16557
G1 X155.6 Y104.766 E7.54028
G1 X155.471 Y105.516 E7.56559
G1 X155.065 Y106.283 E7.59445
G1 X154.962 Y106.407 E7.59981
G1 X154.417 Y106.847 E7.62311
G1 X153.717 Y107.195 E7.64911
G1 X153 Y107.3 E7.67321
G1 X96.824 Y107.3 E9.54163
G1 X96.106 Y107.13 E9.56618
G1 X95.417 Y106.765 E9.59211
G1 X95.293 Y106.662 E9.59747
G1 X94.853 Y106.117 E9.62077
G1 X94.505 Y105.417 E9.64677
G1 X94.4 Y104.7 E9.67087
G1 X94.4 Y93.434 E10.04558
G1 X94.529 Y92.684 E10.07089
G1 X94.935 Y91.917 E10.09975
G1 X95.038 Y91.793 E10.10512
M204 S571
G0 F3600 X95.289 Y92.104
M204 S500
G1 F1200 X95.799 Y91.692 E10.12692
G1 X96.405 Y91.391 E10.14943
G1 X97 Y91.3 E10.16945
G1 X153.068 Y91.306 E12.03428
G1 X153.684 Y91.412 E12.05507
G1 X154.396 Y91.789 E12.08186
G1 X154.808 Y92.299 E12.10367
G1 X155.109 Y92.905 E12.12617
G1 X155.2 Y93.5 E12.14619
G1 X155.2 Y104.733 E12.5198
G1 X155.088 Y105.384 E12.54177
G1 X154.711 Y106.096 E12.56857
G1 X154.201 Y106.508 E12.59038
G1 X153.595 Y106.809 E12.61288
G1 X153 Y106.9 E12.6329
G1 X96.87 Y106.9 E14.49979
G1 X96.25 Y106.753 E14.52099
G1 X95.604 Y106.411 E14.5453
G1 X95.192 Y105.901 E14.5671
G1 X94.891 Y105.295 E14.58961
G1 X94.8 Y104.7 E14.60963
G1 X94.8 Y93.467 E14.98324
G1 X94.912 Y92.816 E15.00521
G1 X95.289 Y92.104 E15.03201
M204 S571
G0 F3600 X95.605 Y92.362
M204 S500
G1 F1200 X95.977 Y92.05 E15.04815
G1 X96.526 Y91.777 E15.06855
G1 X97 Y91.7 E15.08452
G1 X153 Y91.7 E16.94709
G1 X153.552 Y91.795 E16.96572
G1 X154.138 Y92.105 E16.98777
G1 X154.45 Y92.477 E17.00391
G1 X154.723 Y93.026 E17.02431
G1 X154.8 Y93.5 E17.04028
G1 X154.8 Y104.7 E17.41279
G1 X154.705 Y105.252 E17.43142
G1 X154.395 Y105.838 E17.45347
G1 X154.023 Y106.15 E17.46962
G1 X153.474 Y106.423 E17.49001
G1 X153 Y106.5 E17.50598
G1 X96.916 Y106.5 E19.37135
G1 X96.394 Y106.376 E19.38919
G1 X95.862 Y106.095 E19.4092
G1 X95.55 Y105.723 E19.42535
G1 X95.277 Y105.174 E19.44574
G1 X95.2 Y104.7 E19.46172
G1 X95.2 Y93.5 E19.83423
G1 X95.295 Y92.948 E19.85286
G1 X95.605 Y92.362 E19.87491
M204 S571
G0 F3600 X95.923 Y92.617
M204 S500
G1 F1200 X95.678 Y93.081 E19.89236
G1 X95.6 Y93.5 E19.90654
G1 X95.6 Y104.7 E20.27905
G1 X95.662 Y105.051 E20.2909
G1 X95.908 Y105.545 E20.30926
G1 X96.117 Y105.777 E20.31964
G1 X96.581 Y106.022 E20.3371
G1 X96.958 Y106.1 E20.3499
G1 X153 Y106.1 E22.21387
G1 X153.351 Y106.038 E22.22572
G1 X153.845 Y105.792 E22.24408
G1 X154.077 Y105.583 E22.25446
G1 X154.322 Y105.119 E22.27191
G1 X154.4 Y104.7 E22.28609
G1 X154.4 Y93.5 E22.6586
G1 X154.338 Y93.149 E22.67046
G1 X154.092 Y92.655 E22.68881
G1 X153.883 Y92.423 E22.6992
G1 X153.419 Y92.178 E22.71665
G1 X153 Y92.1 E22.73083
G1 X97 Y92.1 E24.59339
G1 X96.649 Y92.162 E24.60525
G1 X96.155 Y92.408 E24.6236
G1 X95.923 Y92.617 E24.63399
M204 S571
G0 F3600 X96.207 Y92.899
M204 S500
G1 F1200 X96.345 Y92.76 E24.6405
G1 X96.727 Y92.554 E24.65494
G1 X97 Y92.5 E24.66419
G1 X153 Y92.5 E26.52676
G1 X153.338 Y92.57 E26.53824
G1 X153.601 Y92.707 E26.54811
G1 X153.74 Y92.845 E26.55462
G1 X153.946 Y93.227 E26.56906
G1 X154 Y93.5 E26.57831
G1 X154 Y104.7 E26.95082
G1 X153.93 Y105.038 E26.96231
G1 X153.793 Y105.301 E26.97217
G1 X153.655 Y105.44 E26.97868
G1 X153.273 Y105.646 E26.99312
G1 X153 Y105.7 E27.00237
G1 X97 Y105.7 E28.86494
G1 X96.662 Y105.63 E28.87642
G1 X96.399 Y105.493 E28.88628
G1 X96.26 Y105.355 E28.8928
G1 X96.054 Y104.973 E28.90723
G1 X96 Y104.7 E28.91649
G1 X96 Y93.5 E29.289
G1 X96.07 Y93.162 E29.30048
G1 X96.207 Y92.899 E29.31035
M204 S571
G0 F3600 X96.55 Y93.104
M204 S500
G1 F1200 X96.82 Y92.943 E29.3208
G1 X97 Y92.9 E29.32696
G1 X153 Y92.9 E31.18953
G1 X153.244 Y92.959 E31.19788
G1 X153.396 Y93.05 E31.20377
G1 X153.557 Y93.32 E31.21422
G1 X153.6 Y93.5 E31.22038
G1 X153.6 Y104.7 E31.59289
G1 X153.541 Y104.944 E31.60124
G1 X153.45 Y105.096 E31.60713
G1 X153.18 Y105.257 E31.61759
G1 X153 Y105.3 E31.62374
G1 X97 Y105.3 E33.48631
G1 X96.756 Y105.241 E33.49466
G1 X96.604 Y105.15 E33.50055
G1 X96.443 Y104.88 E33.51101
G1 X96.4 Y104.7 E33.51716
G1 X96.4 Y93.5 E33.88968
G1 X96.459 Y93.256 E33.89803
G1 X96.55 Y93.104 E33.90392
M204 S571
G0 F3600 X96.839 Y93.381
M204 S500
G1 F1200 X97 Y93.3 E33.90991
G1 X153 Y93.3 E35.77248
G1 X153.119 Y93.339 E35.77665
G1 X153.2 Y93.5 E35.78264
G1 X153.2 Y104.7 E36.15515
G1 X153.161 Y104.819 E36.15932
G1 X153 Y104.9 E36.16531
G1 X97 Y104.9 E38.02788
G1 X96.881 Y104.861 E38.03205
G1 X96.8 Y104.7 E38.03804
G1 X96.8 Y93.5 E38.41055
G1 X96.839 Y93.381 E38.41472
M204 S571
G1 F2100 E37.61472
;MESH:threaded insert test.STL
G0 F3600 X96.335 Y93.381
G0 X96.335 Y98.758
G0 X101.112 Y100.12
M204 S500
;TYPE:WALL-OUTER
G1 F2100 E38.41472
G1 F1200 X101.237 Y100.083 E38.41906
G1 X101.38 Y99.896 E38.42689
G1 X101.464 Y99.518 E38.43976
G1 X101.497 Y98.784 E38.4642
G1 X101.368 Y98.173 E38.48497
G1 X101.153 Y97.972 E38.49476
G1 X100.991 Y97.988 E38.50018
G1 X100.86 Y98.124 E38.50646
G1 X100.757 Y98.412 E38.51663
G1 X100.707 Y99.219 E38.54352
G1 X100.754 Y99.688 E38.5592
G1 X100.814 Y99.89 E38.56621
G1 X100.939 Y100.066 E38.57339
G1 X101.112 Y100.12 E38.57942
M204 S571
G0 F3600 X101.237 Y100.083
G0 X101.279 Y100.028
G0 X101.1 Y99.47
M204 S500
;TYPE:WALL-INNER
G1 F1383.3 X101.115 Y98.805 E38.59861
M204 S571
G1 F2100 E37.79861
G0 F3600 X96.335 Y98.801
G0 X96.347 Y92.847
G0 X145.359 Y92.835
G0 X145.359 Y98.857
M204 S500
;TYPE:WALL-OUTER
G1 F2100 E38.59861
G1 F836.2 X145.323 Y98.918 E38.60199
G1 X145.253 Y98.918 E38.60533
G1 X145.217 Y98.857 E38.60871
G1 X145.253 Y98.796 E38.61209
G1 X145.323 Y98.796 E38.61543
M204 S571
G1 F2100 E37.81543
G0 F3600 X143.935 Y98.969
G0 X142.435 Y99.456
M204 S500
;TYPE:WALL-INNER
G1 F2100 E38.61543
G1 F1200 X142.311 Y99.19 E38.62519
G1 X142.202 Y98.791 E38.63895
G1 X142.203 Y97.864 E38.66978
G1 X142.268 Y97.466 E38.68319
G1 X142.363 Y97.204 E38.69246
G1 X142.565 Y96.869 E38.70548
G1 X142.625 Y96.628 E38.71374
G1 X142.926 Y96.07 E38.73482
G1 X143.514 Y95.589 E38.76009
G1 F1043.5 X144.014 Y95.359 E38.78114
G1 X143.445 Y95.3 E38.80302
G1 F1185.2 X139.295 Y95.302 E38.94278
G1 F1071.4 X138.917 Y95.344 E38.95694
G1 F1083.5 X139.58 Y95.632 E38.98357
G1 F1200 X140.15 Y96.02 E39.0065
G1 X140.645 Y96.58 E39.03136
G1 X141.008 Y97.255 E39.05685
G1 X141.173 Y98.036 E39.0834
G1 X141.198 Y98.332 E39.09328
G1 X141.125 Y98.841 E39.11039
G1 X140.881 Y99.345 E39.12901
G1 X140.971 Y99.631 E39.13898
G1 X141.007 Y99.994 E39.15112
G1 X140.981 Y100.305 E39.1615
G1 X140.804 Y100.971 E39.18442
G1 X140.575 Y101.423 E39.20127
G1 X140.127 Y101.986 E39.2252
G1 X139.726 Y102.298 E39.2421
G1 X139.393 Y102.489 E39.25487
G1 F1016.9 X138.564 Y102.828 E39.29002
G1 F997.9 X138.912 Y102.891 E39.30416
G1 F1173.6 X139.502 Y102.9 E39.32423
G1 F1200 X143.417 Y102.901 E39.45444
G1 F1054.9 X144.335 Y102.846 E39.48924
G1 X143.495 Y102.584 E39.52253
G1 F1200 X142.903 Y102.084 E39.5483
G1 X142.611 Y101.512 E39.56966
G1 X142.535 Y101.15 E39.58196
G1 X142.535 Y99.514 E39.63638
G1 X142.435 Y99.456 E39.64022
M204 S571
G0 F3600 X142.783 Y99.259
M204 S500
G1 F1200 X142.687 Y99.052 E39.64781
G1 X142.602 Y98.619 E39.66249
G1 X142.603 Y97.884 E39.68693
G1 X142.653 Y97.574 E39.69738
G1 X142.818 Y97.202 E39.71091
G1 X142.949 Y97.037 E39.71792
G1 X143.005 Y96.753 E39.72755
G1 X143.239 Y96.32 E39.74392
G1 X143.697 Y95.945 E39.7636
G1 X144.153 Y95.792 E39.7796
G1 X145 Y95.792 E39.80777
G1 X145.772 Y96.023 E39.83458
G1 X146.089 Y96.33 E39.84925
G1 X146.176 Y96.221 E39.85389
G1 X146.501 Y95.989 E39.86717
G1 X147.01 Y95.791 E39.88534
G1 X147.496 Y95.755 E39.90155
G1 X148.093 Y95.887 E39.92188
G1 X148.282 Y95.996 E39.92914
G1 X148.481 Y95.908 E39.93638
G1 X149.086 Y95.731 E39.95734
G1 X149.642 Y95.699 E39.97586
G1 X150.164 Y95.763 E39.99336
G1 X150.777 Y95.975 E40.01493
G1 X151.28 Y96.321 E40.03524
G1 X151.6 Y96.649 E40.05048
G1 X151.6 Y94.9 E40.10865
G1 X98.401 Y94.901 E41.87805
G1 X98.4 Y97.722 E41.97188
G1 F1095.9 X98.439 Y98.336 E41.99429
G1 F1050.3 X98.634 Y97.533 E42.02569
G1 F1145.6 X98.792 Y97.153 E42.04003
G1 F1200 X99.15 Y96.588 E42.06227
G1 X99.509 Y96.236 E42.079
G1 X99.825 Y96.022 E42.09169
G1 X100.284 Y95.82 E42.10837
G1 X100.801 Y95.699 E42.12603
G1 X101.467 Y95.729 E42.1482
G1 X101.859 Y95.805 E42.16148
G1 X102.321 Y95.994 E42.17809
G1 X102.509 Y95.899 E42.18509
G1 X102.982 Y95.764 E42.20145
G1 X103.224 Y95.744 E42.20953
G1 X103.569 Y95.786 E42.22109
G1 X104.009 Y95.92 E42.23639
G1 X104.139 Y95.995 E42.24138
G1 X104.354 Y95.89 E42.24934
G1 X104.903 Y95.735 E42.26831
G1 X105.477 Y95.699 E42.28744
G1 X106.019 Y95.77 E42.30562
G1 X106.4 Y95.891 E42.31892
G1 X106.752 Y96.062 E42.33193
G1 X107.162 Y96.364 E42.34887
G1 X107.505 Y96.735 E42.36567
G1 X107.683 Y97.017 E42.37676
G1 X107.866 Y97.42 E42.39149
G1 X108.008 Y98.09 E42.41426
G1 X108.008 Y98.574 E42.43036
G1 X107.845 Y99.025 E42.44631
G1 X107.642 Y99.29 E42.45742
G1 X107.78 Y99.595 E42.46855
G1 X107.837 Y99.994 E42.48196
G1 X107.818 Y100.236 E42.49003
G1 X107.632 Y100.906 E42.51316
G1 X107.35 Y101.399 E42.53205
G1 X107.074 Y101.704 E42.54573
G1 X106.612 Y102.05 E42.56493
G1 X106.231 Y102.225 E42.57887
G1 X105.714 Y102.365 E42.59669
G1 X105.109 Y102.378 E42.61681
G1 X104.649 Y102.288 E42.6324
G1 X104.264 Y102.143 E42.64609
G1 X103.805 Y101.859 E42.66404
G1 X103.329 Y101.38 E42.6865
G1 X103.235 Y101.203 E42.69316
G1 X103.03 Y101.512 E42.7055
G1 X102.692 Y101.842 E42.72121
G1 X102.158 Y102.167 E42.742
G1 X101.741 Y102.311 E42.75667
G1 X101.097 Y102.392 E42.77826
G1 X100.534 Y102.328 E42.79711
G1 X99.972 Y102.137 E42.81685
G1 X99.396 Y101.744 E42.84004
G1 X99.065 Y101.367 E42.85673
G1 F1134.8 X98.716 Y100.784 E42.88063
G1 F1021.3 X98.446 Y99.921 E42.91597
G1 F1073.8 X98.4 Y100.549 E42.93937
G1 F1200 X98.402 Y103.298 E43.0308
G1 X151.6 Y103.3 E44.80017
G1 X151.6 Y101.265 E44.86786
G1 X151.394 Y101.543 E44.87937
G1 X150.994 Y101.908 E44.89738
G1 X150.569 Y102.178 E44.91412
G1 X149.878 Y102.364 E44.93793
G1 X149.182 Y102.366 E44.96107
G1 X148.789 Y102.29 E44.97439
G1 X148.285 Y102.077 E44.99259
G1 X147.791 Y101.702 E45.01322
G1 X147.56 Y101.443 E45.02476
G1 X147.288 Y100.989 E45.04236
G1 X147.158 Y100.635 E45.0549
G1 X147.114 Y100.354 E45.06436
G1 X146.194 Y101.767 E45.12044
G1 X145.728 Y102.205 E45.14171
G1 X145.215 Y102.391 E45.15986
G1 X144.335 Y102.391 E45.18913
G1 X143.682 Y102.23 E45.2115
G1 X143.221 Y101.841 E45.23156
G1 X142.994 Y101.397 E45.24815
G1 X142.935 Y101.111 E45.25786
G1 X142.935 Y99.347 E45.31653
G1 X142.783 Y99.259 E45.32238
M204 S571
G0 F3600 X143.131 Y99.062
M204 S500
G1 F1200 X143.063 Y98.914 E45.32779
G1 X143.002 Y98.605 E45.33827
G1 X143.002 Y97.903 E45.36162
G1 X143.091 Y97.536 E45.37418
G1 X143.335 Y97.212 E45.38767
G1 X143.385 Y96.879 E45.39887
G1 X143.552 Y96.569 E45.41058
G1 X143.879 Y96.301 E45.42464
G1 X144.204 Y96.192 E45.43604
G1 X145 Y96.192 E45.46252
G1 X145.552 Y96.357 E45.48168
G1 X145.719 Y96.495 E45.48889
G1 X145.884 Y96.723 E45.49825
G1 X145.961 Y96.951 E45.50625
G1 X146.142 Y96.951 E45.51227
G1 X146.447 Y96.515 E45.52997
G1 X146.715 Y96.326 E45.54087
G1 X147.079 Y96.185 E45.55386
G1 X147.496 Y96.155 E45.56776
G1 X147.922 Y96.249 E45.58227
G1 X148.273 Y96.477 E45.59619
G1 X148.612 Y96.287 E45.60912
G1 X149.203 Y96.12 E45.62955
G1 X149.642 Y96.099 E45.64416
G1 X150.101 Y96.158 E45.65956
G1 X150.597 Y96.332 E45.67704
G1 X151.041 Y96.642 E45.69505
G1 X151.373 Y97.007 E45.71146
G1 X151.609 Y97.444 E45.72798
G1 F935.7 X151.887 Y98.128 E45.75947
G1 X152 Y97.67 E45.7796
G1 F1200 X152 Y94.5 E45.88503
G1 X98.001 Y94.501 E47.68104
G1 X98.001 Y103.699 E47.98697
G1 X152 Y103.7 E49.78299
G1 F1203 X152.001 Y99.994 E49.90594
G1 F1061.9 X151.947 Y99.278 E49.93293
G1 F851.1 X151.889 Y98.524 E49.96839
G1 X151.52 Y99.095 E50.00027
G1 F948.6 X151.322 Y99.236 E50.0105
G1 X151.483 Y99.416 E50.02066
G1 F1061.9 X151.601 Y99.994 E50.04283
G1 F1191.1 X151.592 Y100.167 E50.04864
G1 F1188.1 X151.369 Y100.871 E50.07345
G1 F1200 X151.105 Y101.266 E50.08925
G1 X150.775 Y101.573 E50.10424
G1 X150.483 Y101.76 E50.11577
G1 X149.809 Y101.97 E50.13925
G1 X149.2 Y101.966 E50.15951
G1 X148.705 Y101.838 E50.17651
G1 X148.3 Y101.613 E50.19192
G1 X147.858 Y101.177 E50.21257
G1 X147.664 Y100.852 E50.22516
G1 X147.534 Y100.498 E50.2377
G1 X147.475 Y100.121 E50.2504
G1 X147.486 Y99.796 E50.26121
G1 X147.59 Y99.383 E50.27538
G1 X147.457 Y99.093 E50.28599
G1 X145.861 Y101.545 E50.3833
G1 X145.528 Y101.858 E50.3985
G1 X145.163 Y101.991 E50.41142
G1 X144.335 Y101.991 E50.43896
G1 X143.868 Y101.876 E50.45495
G1 X143.539 Y101.598 E50.46928
G1 X143.377 Y101.281 E50.48112
G1 X143.335 Y101.08 E50.48795
G1 X143.335 Y99.18 E50.55114
G1 X143.131 Y99.062 E50.55898
M204 S571
G0 F3600 X143.102 Y99.062
G0 X143.507 Y101.819
G0 X145.481 Y101.826
G0 X147.437 Y98.804
G0 X147.26 Y98.534
M204 S500
G1 F1200 X147.168 Y98.508 E50.56216
G1 X147.139 Y98.847 E50.57348
G1 X145.528 Y101.324 E50.67175
G1 X145.328 Y101.512 E50.68088
G1 X145.11 Y101.591 E50.6886
G1 X144.335 Y101.591 E50.71437
G1 X144.055 Y101.522 E50.72396
G1 X143.857 Y101.356 E50.73256
G1 X143.738 Y101.062 E50.74311
G1 X143.735 Y99.014 E50.81122
G1 X143.479 Y98.865 E50.82108
G1 X143.402 Y98.654 E50.82855
G1 X143.402 Y97.84 E50.85562
G1 X143.494 Y97.63 E50.86325
G1 X143.595 Y97.51 E50.86846
G1 X143.735 Y97.456 E50.87345
G1 X143.745 Y97.078 E50.88603
G1 X143.865 Y96.818 E50.89555
G1 X144.061 Y96.657 E50.90399
G1 X144.255 Y96.592 E50.9108
G1 X145 Y96.592 E50.93557
G1 X145.331 Y96.691 E50.94707
G1 X145.432 Y96.774 E50.95141
G1 X145.568 Y96.996 E50.96007
G1 X145.6 Y97.352 E50.97196
G1 X146.429 Y97.351 E50.99953
G1 X146.49 Y97.142 E51.00677
G1 X146.719 Y96.809 E51.02022
G1 X146.93 Y96.664 E51.02873
G1 X147.148 Y96.579 E51.03651
G1 X147.496 Y96.555 E51.04812
G1 X147.752 Y96.611 E51.05683
G1 X148.069 Y96.821 E51.06948
G1 X148.236 Y97.006 E51.07777
G1 X148.686 Y96.68 E51.09625
G1 X149.272 Y96.514 E51.11651
G1 X149.642 Y96.499 E51.12882
G1 X150.038 Y96.554 E51.14212
G1 X150.417 Y96.689 E51.1555
G1 X150.803 Y96.964 E51.17127
G1 X151.057 Y97.253 E51.18406
G1 X151.3 Y97.771 E51.20309
G1 X151.405 Y98.399 E51.22427
G1 X151.207 Y98.767 E51.23817
G1 X151.063 Y98.869 E51.24404
G1 F1140.1 X150.793 Y98.953 E51.25394
G1 F1098.4 X150.461 Y98.949 E51.266
G1 F1111.1 X150.46 Y99.378 E51.28141
